X:1
T:Per l'ottavo miracolo
T:Horatio Vecchi
T:Source : Canzonette a tre voci di H.Vecchi et di G.Capilupi da Modena---Venetia---Ang.Gardano---1597. Editor : André Vierendeels (28/02/17).
T:Notes : Original clefs : G2, G2, F3 Editorial accidentals above the staff Lute accompaniment is not added in this edition   
T:Per l'ottavo miracolo
T:©
T:©
T:©
T:©
C:Horatio Vecchi
Z:©
%%score [ 1 2 3 ]
L:1/8
Q:1/4=120
M:2/2
K:F
V:1 treble nm="Soprano 1" snm="S 1"
V:2 treble nm="Soprano 2" snm="S 2"
V:3 treble-8 nm="Tenor" snm="T"
V:1
"^1)" z8 | d8- | d4 c2 B2 | A2 B2 c3 d | _e2 d2 c4 | d8 | z2 f2 f2 f2 | f3 e fe g2- | g2 f2 e4 | %9
w: |Per|* l'ot- ta-|vo mi- ra- co-|lo del mon-|do,|di LAU- RA|son le par- go- let-|* te mem-|
w: |Gio-|* ve fu'il|pri- mo che per|Dea l'e- lef-|fe,|ve- ner le|die- de la ver- mi-|* glia boc-|
w: |||||||||
 d2 d2 f3 e | d2 G2 d3 c | d2 B2 A4 |1[M:2/4] G4 :|2 G2 G2 |:[M:2/2] B6 B2 | c2 c2 d4 | %16
w: bra, che ve- ra|Dea, che ve- ra|Dea ras- sem-|bra,|bra, a-|man- ti|non stu- pi-|
w: ca, che l'AU- RA|dol- ce fioc- *||ca,|ca, l'Au-|ro- r'an-|cor le die-|
w: |||||||
 d2 A2 d2 d2 | c2 A2 G4 | F3 G A3 B | c4 G3 A | B3 c d4 | e4 ^f4 | g8 |"^#" f4 g4 | z2 d2 d2 d2 | %25
w: te, ch'ell' heb- be'al|na- scer suo|gra- * * *|* tie'in- *||fi- ni-||* te,|a- man- ti|
w: de, le Guan- cie|à cui le|ro- * * *|sa'e'l gi- *|* * glio|ce- *||* de,|l'Au- ro- r'an-|
w: |||||||||
 c2 B2 A4 | A2 d2 d2 B2 | c2 d2 _e4 | d4 A4- | A2 B2 c4 | G4 B4- | B2 AG F4 | G8 | ^F4 G4- | G8 :| %35
w: non stu- pi-|te, ch'ell' heb- be'al|na- scer suo|gra- tie'in-|* fi- ni-||||* te.||
w: cor le die-|de, la Guan- cie|à cui lz|ro- *||sa'e'l gi-||ce-|* de.||
w: ||||||* * * glio||||
V:2
"^2)""^1)" B8- | B4 A2 G2 | F2 G2 A4- | A2 GF E2 F2 | GA B4 A2 | B4 z2 d2 | d2 d2 d3 c | %7
w: Per|* l'ot- ta-|vo mi- ra-|* * * * co-|lo del mon- *|do, di|LAU- RA son le|
w: Gia|* non le|die- de'il por-|* * * * ta-|men- * * to'al-|tier, il|na- so Cin- tia|
"^b" de d4 e2 | ^c2 d4 c2 | d2 A2 d3 c | B6 G2 | A2 G4 ^F2 |1[M:2/4] G4 :|2 G4 |: %14
w: par- go- let- te|mem- * *|bra, che ve- ra|Dea ras-|sem- * *|bra,|bra,|
w: che so- a- ve-|o- do- *|ra, et ha le|ma, de|Flo- * *|ra,|ra,|
[M:2/2] z2 d2 d2 B2 | A2 G2 A4 | A2 f2 f2 f2 | _e2 d2 B4 | f8 | e8 | d8 | c8 | B4 A4- | A4 G4 | %24
w: a- man- ti|non stu- pi-|te, ch'ell' heb- be'al|na- scer suo|gra-|tie'in-|fi-|ni||* te,|
w: Fe- bo'il lu-|cen- te vi-|so, et ha da|Pri- ma- ve-|ra'il|gra-|to|ri-||* so,|
 z2 B2 B2 B2 | A2 G2 ^F4 | ^F4 z2 G2 | A2 B2 c2 c2 | F4 f4- | f4 e4- | e4 d4 | d8 | c2 B2 A4- | %33
w: a- man- ti|non stu- pi-|te, ch'ell'|heb- be'al na- scer|suo gra-|* tie'in-|* fi-|ni-||
w: Fe- bo'il lu-|cen- te vi-|so, et|ha da Pri- ma-|ve- ra'il|* gra-|* to|ri-||
 A4 G4- | G8 :| %35
w: * te.||
w: * so.||
V:3
"^3)""^1)""^4)""^5)" G8- | G4 F2 E2 | D2 E2 F4- | F2 D2 C4- | C2 B,2 F4 | B,4 z2 B2 | B2 B2 B3 A | %7
w: Per|* l'ot- ta-|vo mi- ra-|* co- lo|* del mon-|do, di|LAU- RA son le|
w: A-|* mor l|do no gl'oc-|* chi'on- d'e-|* gli'è cie-|co, A-|pol- lo'il bion- do|
w: Il|* po- mi|d'o- ro'Al- cide|le con- ce-||de, Mer-|cu- rio'il dir Cor-|
 Bc B4 G2 | A8 | D4 z2 D2 | G3 ^F G2 _E2 | D8 |1[M:2/4] G4 :|2 G4 |:[M:2/2] z2 G2 G2 G2 | %15
w: par- go- let te|mem-|bra, che|ve- ra Dea ras-|sem-|bra,|bra,|a- man- ti|
w: cri- n'e'i dol- ci|sguar-|di, E-|li ce'ond' es- con|d'ar-|di,|di.|I- ri le|
w: te- s'e'l pie leg-|gie-|ro, le|Na- ia- de le|die-|ro.||d'a- mo- ro-|
 ^F2 E2 D4 | D2 d2 d2 B2 | c2 d2 _e4 | d4 A4- | A2 B2 c4 | G4 B4 | A8 | G4 d4- | d4 z2 G2 | B6 B2 | %25
w: non stu- pi-|te, ch'ell' heb- be'al|na- scer suo|gra- tie'in-||fi- ni-||* te,|* a-|man- ti|
w: diè le ci-|gkia, le Gra- tie'il|cor- po ch'A-|vo- rio|* so- mi-|||* glia,|* I-|ri le|
w: si CA- LO|RI, la ris- cal-|da Hi- me-|ne- o|* con san-|ti A-|mo|* ri,|* d'A-|mo- ro-|
 c2 c2 d4 | d2 D2 G2 G2 | F2 D2 C4 | B,3 C D3 E | F4 C3 D | E3 F G4 | G,4 B,4- | B,2 C2 D4- | %33
w: non stu- pi-|te, ch'ell' heb- be'al|na- scer suo|gra- * * *|* tie'in- *||fi- ni-||
w: diè len ci-|glia, le Gra- ie'il|cor- po ch'A-|vo- * * *||* * rio|so- *|* * mi-|
w: si CA- LO-|RI, la rris- cal-|da Hi- me-|ne- * * *||* * o|con san-|* ti'A- mo-|
 D4 G4- | G8 :| %35
w: * te.||
w: * glia.||
w: * ri.||

